!!!!SEGMENT: pl-kk--kk-i-40--007-004_palestrina-giovanni-pierluigi-da--missa-sacerdos-et-pontifex-benedictus.krn
!!!cenid: 16xx:1304
!!!COM: Palestrina, Giovanni Pierluigi da
!!!COM-rismid: pe1904
!!!CDT: ~1525-1594/02/02
!!!CNT: Italian
!!!OPR: Missa Sacerdos et Pontifex
!!!OTL: Benedictus
!!!OMV: 004
!!!PDT:
!!!AGN: Sacred; Mass
!!!SMS-siglum: PL-Kk
!!!SMS-shelfmark: Kk.I.40
!!!SMS-shelfwork: 007-004 M
!!!SMS-variant:
!!!SMS-altvar:
!!!NIFC-rismid: 1001154493
!!!URL-scan: http://repozytorium.nifc.pl/skany/pl-kk-nut--i-40
!!!ONB-nifc: UWAGA: części Mszy: 1. Kyrie, 2. Et in terra, 3. Sanctus, 4. Benedictus, 5. Agnus Dei. Skan 0010-0011
!!!key:
**kern	**text
*Iempty	*
*I"Baſso Ripieno.	*
*I'B rip	*
*clefF3	*
*k[b-]	*
*g:dor	*
*M2/1	*
*met(c|)	*
=1-	=1-
!LO:TX:t=P:global:problem=oddech/cezura na różnej wysokości	!
!LO:TX:t=P:znaki:problem= B- nad BB-	!
!LO:N:vis=00	!
00r	.
=2-	=2-
.	.
=3-	=3-
!LO:N:vis=00	!
00r	.
=4-	=4-
.	.
=5-	=5-
0D	Be-
=6-	=6-
1E	-ne-
!LO:TX:t=P:problem=kreska pseudotaktowa	!
1F	-di-
=7-	=7-
*2\right	*
2G,\	-ctus
2.B-\	qui
4A\	.
4F\	.
!LO:TX:t=P:problem=kreska pseudotaktowa	!
4G\	.
=8-	=8-
2A\	.
!LO:TX:t=P::problem=kreska pseudotaktowa&colon;między nutą a kropką	!
[<2B-\	ve-
!LO:N:vis=xstem:cue	!
4B-]	.
4A\)	.
1G\	.
=9-	=9-
.	.
4F#X/	.
!LO:TX:t=P:problem=kreska pseudotaktowa	!
4E/	.
*lig	*
1F#X	.
=10-	=10-
1G	.
*Xlig	*
1A	-nit,
=11-	=11-
!LO:TX:t=P:problem=kreska pseudotaktowa	!
1D,	.
!LO:TX:t=P:problem=kreska pseudotaktowa	!
00r	.
=12-	=12-
.	.
=13-	=13-
.	.
2r	.
2.d\	Qui
=14-	=14-
.	.
4c\	.
4B-\	.
!LO:TX:t=P:problem=kreska pseudotaktowa	!
4A\	.
4G\	ve-
4A\	.
!LO:TX:t=P:problem=kreska pseudotaktowa	!
2B-\	.
=15-	=15-
2A\	.
4G\	.
4Fny\	.
1G	.
=16-	=16-
*custos:d	*
!LO:TX:t=P:problem=kreska pseudotaktowa	!
1D,	-nit
!LO:LB:g=original	!
1d	Be-
=17-	=17-
2B-\	-ne-
!LO:TX:t=P:problem=kreska pseudotaktowa	!
2B-\	-di-
2c,\	-ctus
4G\	.
!LO:TX:t=P:problem=kreska pseudotaktowa	!
4A\	.
=18-	=18-
4B-\	qui
4c\	.
1d	ve-
!LO:TX:t=P:problem=kreska pseudotaktowa	!
2c\	.
=19-	=19-
2d,\	-nit
2D/	in
1.G	No-
=20-	=20-
.	.
2E/	-mi-
!LO:TX:t=P:problem=kreska pseudotaktowa	!
1D,	-ne
=21-	=21-
!LO:TX:t=P:problem=kreska pseudotaktowa	!
1r	.
2r	.
2.d\	Do-
=22-	=22-
.	.
4c\	.
4d\	.
!LO:TX:t=P:problem=kreska pseudotaktowa	!
4B-\	.
2c\	.
2d\	-mi-
=23-	=23-
2G,\	-ni
2.B-\	Do-
4A\	.
4B-\	.
!LO:TX:t=P:problem=kreska pseudotaktowa	!
4G\	.
=24-	=24-
2A\	.
2B-\	-mi-
*lig	*
1E-X	-ni
=25-	=25-
!LO:TX:t=P:problem=kreska pseudotaktowa	!
1F	.
*Xlig	*
2r	.
2BB-/	in
=26-	=26-
1.E-X	No-
2C/	-mi-
=27-	=27-
!LO:TX:t=P:problem=kreska pseudotaktowa	!
1BB-,	-ne
!LO:LB:g=original	!
00r	.
=28-	=28-
.	.
=29-	=29-
.	.
!LO:TX:t=P:problem=kreska pseudotaktowa	!
1r	.
=30-	=30-
2r	.
2.d\	Do-
4c\	.
4d\	.
!LO:TX:t=P:problem=kreska pseudotaktowa	!
4B-\	.
=31-	=31-
2c\	.
2d\	-mi-
!LO:TX:t=P:problem=kreska pseudotaktowa	!
1G,	-ni
=32-	=32-
1A	in
2B-\	No-
2B-\	-mi-
=33-	=33-
!LO:TX:t=P:problem=kreska pseudotaktowa	!
1G	-ne
2r	.
2.G\	Do-
=34-	=34-
.	.
4F\	.
4G\	.
!LO:TX:t=P:problem=kreska pseudotaktowa	!
4Eny/	.
2F\	.
2G\	-mi-
=35-	=35-
!LO:TX:t=P:problem=kreska pseudotaktowa	!
1C	-ni
2D/	Do-
2E-X/	.
=36-	=36-
1.D	.
!LO:TX:t=P:problem=kreska pseudotaktowa	!
2D/	-mi-
=37-	=37-
0G;>	-ni.
=38||-	=38||-
*k[b-]	*
*M2/1	*
*met(c|)	*
1D	O-
2D/	-san-
!LO:TX:t=P:problem=kreska pseudotaktowa	!
2A\	-na
=39-	=39-
1.D	in
!LO:TX:t=P:problem=kreska pseudotaktowa	!
2C/	.
!LO:LB:g=original	!
=40-	=40-
2G\	ex-
2D/	.
1A	-cel-
=41-	=41-
!LO:TX:t=P:problem=kreska pseudotaktowa	!
1D	-sis
2r	.
2G\	O-
=42-	=42-
2G\	-san-
!LO:TX:t=P:problem=kreska pseudotaktowa	!
2F\	-na
2.G\	in
!LO:TX:t=P:problem=kreska pseudotaktowa	!
4A\	.
=43-	=43-
2B-\	ex-
1c	-cel-
!LO:TX:t=P:problem=kreska pseudotaktowa	!
2B-\	.
=44-	=44-
1A	.
*lig	*
1G	.
=45-	=45-
1A	.
*Xlig	*
!LO:TX:t=P:problem=kreska pseudotaktowa	!
1D,	-sis.
=46-	=46-
0r	.
=47-	=47-
!LO:TX:t=P:problem=kreska pseudotaktowa	!
1r	.
1D	O-
=48-	=48-
2D/	-san-
!LO:TX:t=P:problem=kreska pseudotaktowa	!
2C/	-na
2.D/	in
4E/	.
=49-	=49-
2F\	ex-
!LO:TX:t=P:problem=kreska pseudotaktowa	!
[<2G\	-cel-
2G\]	.
2F/	.
=50-	=50-
1E-X	-sis.
!LO:TX:t=P:problem=kreska pseudotaktowa	!
1D,	.
=51-	=51-
0r	.
=52-	=52-
!LO:TX:t=P:problem=kreska pseudotaktowa	!
1r	.
1D	O-
=53-	=53-
2E-X/	-san-
2C/	-na
1G	.
=54-	=54-
1.C	in
2G\	ex-
=55-	=55-
0C	-cel-
=56-	=56-
0G;>	-ſis
==	==
*-	*-
!!!RDF**kern: > = above
!!!RDF**kern: < = below
!!!EED: Antoni Szymański
!!!EST: 2021-08-01
!!!AIN: 1 empty
!!!ENC: Anastazja Marusiak
!!!END: 2021-07-04
